X: 35
T: POT STICK
T: Over the Water to Charlie
B: "Old English Country Dances", Frank Kidson ed., William Reeves pub., London 1890
Z: 2010-9-26 John Chambers <jc:trillian.mit.edu>
M: 6/8
L: 1/8
K: D
|: D2A AFA | B/c/dF E2D | D2A AFA | B3 d3 :|
|: d/e/fd ecA | B/c/dF E2D | d/e/fd ecA | B3 d3 |
   d/e/fd ecA | B/c/dF E2D | DFA AFA | B3 d3 :|


%%sep 1 1 500

%%sep 1 1 500

